assets/layered-waves.svg

<svg xmlns="http://www.w3.org/2000/svg" width="900" height="900"><path fill="#2dd4bf" d="m0 532 30-4.5c30-4.5 90-13.5 150-9.2 60 4.4 120 22 180 31.9 60 9.8 120 11.8 180-3.9 60-15.6 120-49 180-58s120 6.4 150 14l30 7.7v391H0Z"/><path fill="#24bcaa" d="m0 557 30 9.7c30 9.6 90 29 150 28.6 60-.3 120-20.3 180-16.3s120 32 180 30.5 120-32.5 180-38.7c60-6.1 120 12.5 150 21.9l30 9.3v299H0Z"/><path fill="#1ca496" d="m0 622 30 14.7c30 14.6 90 44 150 54.5s120 2.1 180-5.5c60-7.7 120-14.7 180-11.4 60 3.4 120 17 180 15.9C780 689 840 673 870 665l30-8v244H0Z"/><path fill="#158d82" d="m0 730 30 4.2c30 4.1 90 12.5 150 14.5s120-2.4 180-5.7 120-5.7 180 0 120 19.3 180 14.8 120-27.1 150-38.5l30-11.3v193H0Z"/><path fill="#0f766e" d="m0 843 30-1.7c30-1.6 90-5 150-15.6 60-10.7 120-28.7 180-29.5 60-.9 120 15.5 180 24.1 60 8.7 120 9.7 180 1 60-8.6 120-27 150-36.1l30-9.2v125H0Z"/></svg>

<svg id="visual" viewBox="0 0 900 900" width="900" height="900" xmlns="http://www.w3.org/2000/svg" xmlns:xlink="http://www.w3.org/1999/xlink" version="1.1"><path d="M0 532L30 527.5C60 523 120 514 180 518.3C240 522.7 300 540.3 360 550.2C420 560 480 562 540 546.3C600 530.7 660 497.3 720 488.3C780 479.3 840 494.7 870 502.3L900 510L900 901L870 901C840 901 780 901 720 901C660 901 600 901 540 901C480 901 420 901 360 901C300 901 240 901 180 901C120 901 60 901 30 901L0 901Z" fill="#2dd4bf"></path><path d="M0 557L30 566.7C60 576.3 120 595.7 180 595.3C240 595 300 575 360 579C420 583 480 611 540 609.5C600 608 660 577 720 570.8C780 564.7 840 583.3 870 592.7L900 602L900 901L870 901C840 901 780 901 720 901C660 901 600 901 540 901C480 901 420 901 360 901C300 901 240 901 180 901C120 901 60 901 30 901L0 901Z" fill="#24bcaa"></path><path d="M0 622L30 636.7C60 651.3 120 680.7 180 691.2C240 701.7 300 693.3 360 685.7C420 678 480 671 540 674.3C600 677.7 660 691.3 720 690.2C780 689 840 673 870 665L900 657L900 901L870 901C840 901 780 901 720 901C660 901 600 901 540 901C480 901 420 901 360 901C300 901 240 901 180 901C120 901 60 901 30 901L0 901Z" fill="#1ca496"></path><path d="M0 730L30 734.2C60 738.3 120 746.7 180 748.7C240 750.7 300 746.3 360 743C420 739.7 480 737.3 540 743C600 748.7 660 762.3 720 757.8C780 753.3 840 730.7 870 719.3L900 708L900 901L870 901C840 901 780 901 720 901C660 901 600 901 540 901C480 901 420 901 360 901C300 901 240 901 180 901C120 901 60 901 30 901L0 901Z" fill="#158d82"></path><path d="M0 843L30 841.3C60 839.7 120 836.3 180 825.7C240 815 300 797 360 796.2C420 795.3 480 811.7 540 820.3C600 829 660 830 720 821.3C780 812.7 840 794.3 870 785.2L900 776L900 901L870 901C840 901 780 901 720 901C660 901 600 901 540 901C480 901 420 901 360 901C300 901 240 901 180 901C120 901 60 901 30 901L0 901Z" fill="#0f766e"></path></svg>
